X: 1
T: Maeve’s Reel
C: Jim McKillop
S: Brid Harper & Dermot Byrne - Live In Concert
M: 4/4
L: 1/8
R: reel
K: Gmaj
Bc|dged dBAd|^AB=AG GEDB,|~G,2B,D GBdg|eAag ed (3Bcd|
~g3a bgeg|gedB AGEG|~D2GB dgfg|ecAF GA:|
|:Bc|dggf ~g3a|bg~g2 edBd|DEGA ~B3c|dgfd ed (3Bcd|
~g3a bgeg|gedB AGEG|~D2GB dgfg|ecAF GA:|
